gtk-icons/Papirus-GTK/16x16/actions/view-form-action.svg

<?xml version="1.0" encoding="UTF-8" standalone="no"?>
<!-- Created with Inkscape (http://www.inkscape.org/) -->

<svg
   xmlns:osb="http://www.openswatchbook.org/uri/2009/osb"
   xmlns:dc="http://purl.org/dc/elements/1.1/"
   xmlns:cc="http://creativecommons.org/ns#"
   xmlns:rdf="http://www.w3.org/1999/02/22-rdf-syntax-ns#"
   xmlns:svg="http://www.w3.org/2000/svg"
   xmlns="http://www.w3.org/2000/svg"
   xmlns:sodipodi="http://sodipodi.sourceforge.net/DTD/sodipodi-0.dtd"
   xmlns:inkscape="http://www.inkscape.org/namespaces/inkscape"
   sodipodi:docname="view-form-action.svg"
   inkscape:export-filename="/home/sam/source-symbolic.png"
   inkscape:export-xdpi="270"
   inkscape:export-ydpi="270"
   height="16"
   id="svg7384"
   style="enable-background:new"
   version="1.1"
   inkscape:version="0.91 r13725"
   width="16.000017">
  <sodipodi:namedview
     inkscape:bbox-nodes="true"
     inkscape:bbox-paths="false"
     bordercolor="#666666"
     borderlayer="false"
     borderopacity="1"
     inkscape:current-layer="layer12"
     inkscape:cx="2.380925"
     inkscape:cy="3.5175469"
     gridtolerance="10"
     inkscape:guide-bbox="true"
     guidetolerance="10"
     id="namedview88"
     inkscape:object-nodes="true"
     inkscape:object-paths="true"
     objecttolerance="10"
     pagecolor="#f7f7f7"
     inkscape:pageopacity="0"
     inkscape:pageshadow="2"
     showborder="true"
     showgrid="false"
     showguides="true"
     inkscape:showpageshadow="false"
     inkscape:snap-bbox="true"
     inkscape:snap-bbox-edge-midpoints="false"
     inkscape:snap-bbox-midpoints="true"
     inkscape:snap-center="false"
     inkscape:snap-global="true"
     inkscape:snap-grids="true"
     inkscape:snap-intersection-paths="true"
     inkscape:snap-midpoints="true"
     inkscape:snap-nodes="true"
     inkscape:snap-object-midpoints="true"
     inkscape:snap-others="true"
     inkscape:snap-page="false"
     inkscape:snap-smooth-nodes="true"
     inkscape:snap-to-guides="true"
     inkscape:window-height="847"
     inkscape:window-maximized="1"
     inkscape:window-width="1600"
     inkscape:window-x="0"
     inkscape:window-y="30"
     inkscape:zoom="19.88">
    <inkscape:grid
       color="#000000"
       dotted="false"
       empcolor="#0800ff"
       empopacity="0.4627451"
       empspacing="4"
       enabled="true"
       id="grid4866"
       opacity="0.16470588"
       originx="-343.99998"
       originy="-176"
       snapvisiblegridlinesonly="true"
       spacingx="0.25px"
       spacingy="0.25px"
       type="xygrid"
       visible="true" />
  </sodipodi:namedview>
  <metadata
     id="metadata90">
    <rdf:RDF>
      <cc:Work
         rdf:about="">
        <dc:format>image/svg+xml</dc:format>
        <dc:type
           rdf:resource="http://purl.org/dc/dcmitype/StillImage" />
        <dc:title>Paper Symbolic Icon Theme</dc:title>
      </cc:Work>
    </rdf:RDF>
  </metadata>
  <title
     id="title8473">Paper Symbolic Icon Theme</title>
  <defs
     id="defs7386">
    <linearGradient
       id="linearGradient5606"
       osb:paint="solid">
      <stop
         id="stop5608"
         offset="0"
         style="stop-color:#000000;stop-opacity:1;" />
    </linearGradient>
    <style
       id="current-color-scheme"
       type="text/css">
      .ColorScheme-Text {
        color:#4d4d4d;
      }
      .ColorScheme-Background {
        color:#eff0f1;
      }
      .ColorScheme-Highlight {
        color:#3daee9;
      }
      .ColorScheme-ViewText {
        color:#31363b;
      }
      .ColorScheme-ViewBackground {
        color:#fcfcfc;
      }
      .ColorScheme-ViewHover {
        color:#93cee9;
      }
      .ColorScheme-ViewFocus{
        color:#3daee9;
      }
      .ColorScheme-ButtonText {
        color:#31363b;
      }
      .ColorScheme-ButtonBackground {
        color:#eff0f1;
      }
      .ColorScheme-ButtonHover {
        color:#93cee9;
      }
      .ColorScheme-ButtonFocus{
        color:#3daee9;
      }
      </style>
  </defs>
  <g
     inkscape:groupmode="layer"
     id="layer12"
     inkscape:label="actions"
     style="display:inline"
     transform="translate(-585.00018,-41)">
    <path
       style="color:#000000;font-style:normal;font-variant:normal;font-weight:normal;font-stretch:normal;font-size:medium;line-height:normal;font-family:Sans;-inkscape-font-specification:Sans;text-indent:0;text-align:start;text-decoration:none;text-decoration-line:none;letter-spacing:normal;word-spacing:normal;text-transform:none;direction:ltr;block-progression:tb;writing-mode:lr-tb;baseline-shift:baseline;text-anchor:start;display:inline;overflow:visible;visibility:visible;opacity:0.5;fill:#000000;fill-opacity:1;fill-rule:nonzero;stroke:none;stroke-width:2;marker:none;enable-background:new"
       d="M 2 1 C 2 1 1.9237994 1.0040975 1.8183594 1.0234375 C 1.6142394 1.0535875 1.4596731 1.1269285 1.3457031 1.2265625 C 1.3236031 1.2435025 1.30215 1.26163 1.28125 1.28125 C 1.26165 1.30222 1.2435625 1.3236331 1.2265625 1.3457031 C 1.1269625 1.4596741 1.0535875 1.6142434 1.0234375 1.8183594 C 1.0040575 1.9237714 1 2 1 2 L 1 9 L 1 14 C 1 15 2 15 2 15 L 7 15 L 9 15 L 14 15 C 14 15 15 15 15 14 L 15 9 L 15 2 C 15 2 14.995964 1.9237704 14.976562 1.8183594 C 14.946464 1.6142434 14.873067 1.4596741 14.773438 1.3457031 C 14.756538 1.3236331 14.73835 1.30222 14.71875 1.28125 C 14.69775 1.26163 14.676297 1.2435025 14.654297 1.2265625 C 14.540327 1.1269325 14.385761 1.0535885 14.181641 1.0234375 C 14.076151 1.0040995 14 1 14 1 L 2 1 z M 3 4 L 5 4 L 6 4 L 6 5 L 6 6 L 6 8 L 6 9 L 6 10 L 5 10 L 3 10 L 3 8 L 3 6 L 3 4 z M 7 5 L 9 5 L 9 6 L 7 6 L 7 5 z M 11 5 L 11 8 L 13 8 L 10 12 L 10 9 L 8 9.0820312 L 11 5 z "
       transform="translate(585.00018,41)"
       id="path4236" />
    <rect
       style="color:#4d4d4d;fill:currentColor;fill-opacity:1;stroke:none"
       id="rect4035"
       width="0"
       height="10.999983"
       x="561.09967"
       y="45.285339"
       class="ColorScheme-Text" />
    <rect
       style="color:#4d4d4d;fill:currentColor;fill-opacity:1;stroke:none"
       id="rect4035-5"
       width="0"
       height="10.999983"
       x="579.14044"
       y="43.234009"
       class="ColorScheme-Text" />
    <rect
       style="color:#4d4d4d;fill:currentColor;fill-opacity:1;stroke:none"
       id="rect4035-8"
       width="0"
       height="10.999983"
       x="561.09967"
       y="45.285339"
       class="ColorScheme-Text" />
    <rect
       style="color:#4d4d4d;fill:currentColor;fill-opacity:1;stroke:none"
       id="rect4035-59"
       width="0"
       height="10.999983"
       x="561.09967"
       y="45.285339"
       class="ColorScheme-Text" />
    <rect
       style="color:#4d4d4d;fill:currentColor;fill-opacity:1;stroke:none"
       id="rect4035-1"
       width="0"
       height="10.999983"
       x="574.09967"
       y="45.285339"
       class="ColorScheme-Text" />
    <rect
       style="color:#4d4d4d;fill:currentColor;fill-opacity:1;stroke:none"
       id="rect4035-2"
       width="0"
       height="10.999983"
       x="567.95941"
       y="45.551331"
       class="ColorScheme-Text" />
    <rect
       style="color:#4d4d4d;fill:currentColor;fill-opacity:1;stroke:none"
       id="rect4035-5-6"
       width="0"
       height="10.999983"
       x="586.00018"
       y="43.5"
       class="ColorScheme-Text" />
    <rect
       style="color:#4d4d4d;fill:currentColor;fill-opacity:1;stroke:none"
       id="rect4035-8-0"
       width="0"
       height="10.999983"
       x="567.95941"
       y="45.551331"
       class="ColorScheme-Text" />
    <rect
       style="color:#4d4d4d;fill:currentColor;fill-opacity:1;stroke:none"
       id="rect4035-59-5"
       width="0"
       height="10.999983"
       x="567.95941"
       y="45.551331"
       class="ColorScheme-Text" />
    <text
       sodipodi:linespacing="125%"
       id="text3781"
       y="58.308594"
       x="583.39539"
       style="color:#4d4d4d;font-style:normal;font-weight:normal;font-size:9px;line-height:125%;font-family:Sans;letter-spacing:0px;word-spacing:0px;fill:currentColor;fill-opacity:1;stroke:none"
       xml:space="preserve"
       class="ColorScheme-Text"><tspan
         id="tspan3783"
         sodipodi:role="line"
         x="583.39539"
         y="58.308594" /></text>
    <text
       sodipodi:linespacing="125%"
       id="text3781-8"
       y="52.445251"
       x="584.13208"
       style="color:#4d4d4d;font-style:normal;font-weight:normal;font-size:9px;line-height:125%;font-family:Sans;letter-spacing:0px;word-spacing:0px;fill:currentColor;fill-opacity:1;stroke:none"
       xml:space="preserve"
       class="ColorScheme-Text"><tspan
         id="tspan3783-1"
         sodipodi:role="line"
         x="584.13208"
         y="52.445251" /></text>
    <text
       sodipodi:linespacing="125%"
       id="text3781-4"
       y="59.308594"
       x="577.39539"
       style="color:#4d4d4d;font-style:normal;font-weight:normal;font-size:9px;line-height:125%;font-family:Sans;letter-spacing:0px;word-spacing:0px;fill:currentColor;fill-opacity:1;stroke:none"
       xml:space="preserve"
       class="ColorScheme-Text"><tspan
         id="tspan3783-13"
         sodipodi:role="line"
         x="577.39539"
         y="59.308594" /></text>
    <rect
       style="color:#4d4d4d;fill:currentColor;fill-opacity:1;stroke:none"
       id="rect4035-9"
       width="0"
       height="10.999983"
       x="567.95941"
       y="45.551331"
       class="ColorScheme-Text" />
    <rect
       style="color:#4d4d4d;fill:currentColor;fill-opacity:1;stroke:none"
       id="rect4035-5-7"
       width="0"
       height="10.999983"
       x="586.00018"
       y="43.5"
       class="ColorScheme-Text" />
    <rect
       style="color:#4d4d4d;fill:currentColor;fill-opacity:1;stroke:none"
       id="rect4035-9-0"
       width="0"
       height="10.999983"
       x="547.95941"
       y="45.551331"
       class="ColorScheme-Text" />
    <rect
       style="color:#4d4d4d;fill:currentColor;fill-opacity:1;stroke:none"
       id="rect4035-5-7-5"
       width="0"
       height="10.999983"
       x="566.00018"
       y="43.5"
       class="ColorScheme-Text" />
  </g>
</svg>

<?xml version="1.0" encoding="UTF-8" standalone="no"?>
<!-- Created with Inkscape (http://www.inkscape.org/) -->
<svg id="svg7384" xmlns:rdf="http://www.w3.org/1999/02/22-rdf-syntax-ns#" style="enable-background:new" xmlns="http://www.w3.org/2000/svg" xmlns:osb="http://www.openswatchbook.org/uri/2009/osb" height="16" width="16" version="1.1" xmlns:cc="http://creativecommons.org/ns#" xmlns:dc="http://purl.org/dc/elements/1.1/">
 <metadata id="metadata90">
  <rdf:RDF>
   <cc:Work rdf:about="">
    <dc:format>image/svg+xml</dc:format>
    <dc:type rdf:resource="http://purl.org/dc/dcmitype/StillImage"/>
    <dc:title>Paper Symbolic Icon Theme</dc:title>
   </cc:Work>
  </rdf:RDF>
 </metadata>
 <title id="title8473">Paper Symbolic Icon Theme</title>
 <defs id="defs7386">
  <style id="current-color-scheme" type="text/css">.ColorScheme-Text {
        color:#4d4d4d;
      }
      .ColorScheme-Background {
        color:#eff0f1;
      }
      .ColorScheme-Highlight {
        color:#3daee9;
      }
      .ColorScheme-ViewText {
        color:#31363b;
      }
      .ColorScheme-ViewBackground {
        color:#fcfcfc;
      }
      .ColorScheme-ViewHover {
        color:#93cee9;
      }
      .ColorScheme-ViewFocus{
        color:#3daee9;
      }
      .ColorScheme-ButtonText {
        color:#31363b;
      }
      .ColorScheme-ButtonBackground {
        color:#eff0f1;
      }
      .ColorScheme-ButtonHover {
        color:#93cee9;
      }
      .ColorScheme-ButtonFocus{
        color:#3daee9;
      }</style>
 </defs>
 <g id="layer12" transform="translate(-585 -41)">
  <path id="path4236" opacity=".5" style="color:#000000;text-indent:0;block-progression:tb;text-decoration-line:none;enable-background:new;text-transform:none" d="m2 1s-0.0762 0.0041-0.1816 0.0234c-0.2042 0.0302-0.3587 0.1035-0.4727 0.2032-0.0221 0.0169-0.0435 0.035-0.0645 0.0546-0.0196 0.021-0.0376 0.0424-0.0546 0.0645-0.0996 0.114-0.173 0.2685-0.2032 0.4727-0.0193 0.1054-0.0234 0.1816-0.0234 0.1816v7 5c0 1 1 1 1 1h5 2 5s1 0 1-1v-5-7s-0.004-0.0762-0.023-0.1816c-0.031-0.2042-0.104-0.3587-0.204-0.4727-0.016-0.0221-0.035-0.0435-0.054-0.0645-0.021-0.0196-0.043-0.0377-0.065-0.0546-0.114-0.0997-0.268-0.173-0.472-0.2032-0.106-0.0193-0.182-0.0234-0.182-0.0234h-12zm1 3h2 1v1 1 2 1 1h-1-2v-2-2-2zm4 1h2v1h-2v-1zm4 0v3h2l-3 4v-3l-2 0.082 3-4.082z" transform="translate(585 41)"/>
  <rect id="rect4035" style="color:#4d4d4d" class="ColorScheme-Text" height="11" width="0" y="45.285" x="561.1" fill="currentColor"/>
  <rect id="rect4035-5" style="color:#4d4d4d" class="ColorScheme-Text" height="11" width="0" y="43.234" x="579.14" fill="currentColor"/>
  <rect id="rect4035-8" style="color:#4d4d4d" class="ColorScheme-Text" height="11" width="0" y="45.285" x="561.1" fill="currentColor"/>
  <rect id="rect4035-59" style="color:#4d4d4d" class="ColorScheme-Text" height="11" width="0" y="45.285" x="561.1" fill="currentColor"/>
  <rect id="rect4035-1" style="color:#4d4d4d" class="ColorScheme-Text" height="11" width="0" y="45.285" x="574.1" fill="currentColor"/>
  <rect id="rect4035-2" style="color:#4d4d4d" class="ColorScheme-Text" height="11" width="0" y="45.551" x="567.96" fill="currentColor"/>
  <rect id="rect4035-5-6" style="color:#4d4d4d" class="ColorScheme-Text" height="11" width="0" y="43.5" x="586" fill="currentColor"/>
  <rect id="rect4035-8-0" style="color:#4d4d4d" class="ColorScheme-Text" height="11" width="0" y="45.551" x="567.96" fill="currentColor"/>
  <rect id="rect4035-59-5" style="color:#4d4d4d" class="ColorScheme-Text" height="11" width="0" y="45.551" x="567.96" fill="currentColor"/>
  <text id="text3781" style="color:#4d4d4d;word-spacing:0px;letter-spacing:0px" line-height="125%" font-size="9px" class="ColorScheme-Text" y="58.308594" x="583.39539" font-family="Sans" xml:space="preserve" fill="currentColor"><tspan id="tspan3783" x="583.39539" y="58.308594"/></text>
  <text id="text3781-8" style="color:#4d4d4d;word-spacing:0px;letter-spacing:0px" line-height="125%" font-size="9px" class="ColorScheme-Text" y="52.445251" x="584.13208" font-family="Sans" xml:space="preserve" fill="currentColor"><tspan id="tspan3783-1" x="584.13208" y="52.445251"/></text>
  <text id="text3781-4" style="color:#4d4d4d;word-spacing:0px;letter-spacing:0px" line-height="125%" font-size="9px" class="ColorScheme-Text" y="59.308594" x="577.39539" font-family="Sans" xml:space="preserve" fill="currentColor"><tspan id="tspan3783-13" x="577.39539" y="59.308594"/></text>
  <rect id="rect4035-9" style="color:#4d4d4d" class="ColorScheme-Text" height="11" width="0" y="45.551" x="567.96" fill="currentColor"/>
  <rect id="rect4035-5-7" style="color:#4d4d4d" class="ColorScheme-Text" height="11" width="0" y="43.5" x="586" fill="currentColor"/>
  <rect id="rect4035-9-0" style="color:#4d4d4d" class="ColorScheme-Text" height="11" width="0" y="45.551" x="547.96" fill="currentColor"/>
  <rect id="rect4035-5-7-5" style="color:#4d4d4d" class="ColorScheme-Text" height="11" width="0" y="43.5" x="566" fill="currentColor"/>
 </g>
</svg>
